images/about-bg-image.svg

<svg width="486" height="460" viewBox="0 0 486 460" fill="none" xmlns="http://www.w3.org/2000/svg">
<g clip-path="url(#clip0_635_117)">
<path d="M80 419.896C46.7532 423.636 43.8442 426.753 40.1039 460C36.3636 426.753 33.2468 423.636 0 419.896C33.2468 416.156 36.3636 413.247 40.1039 380C43.8442 413.247 46.7532 416.156 80 419.896Z" fill="#1E84B5" fill-opacity="0.1"/>
<path d="M30.8124 445.518C19.1761 446.827 18.158 447.918 16.8489 459.555C15.5398 447.918 14.4488 446.827 2.8125 445.518C14.4488 444.209 15.5398 443.191 16.8489 431.555C18.158 443.191 19.1761 444.209 30.8124 445.518Z" fill="#1E84B5"/>
<path d="M335 59C336.657 59 338 57.6569 338 56C338 54.3431 336.657 53 335 53C333.343 53 332 54.3431 332 56C332 57.6569 333.343 59 335 59Z" fill="white"/>
<path d="M435.995 230C432.505 230 429.664 227.159 429.664 223.669V186.331C429.664 182.841 432.505 180 435.995 180C439.404 180 442.245 182.841 442.245 186.331V223.669C442.245 227.159 439.404 230 435.995 230Z" fill="#1E84B5" fill-opacity="0.1"/>
<path d="M411 204.999C411 201.509 413.841 198.668 417.25 198.668H454.669C458.159 198.668 460.919 201.509 460.919 204.999C460.919 208.49 458.159 211.33 454.669 211.33H417.25C413.841 211.33 411 208.49 411 204.999Z" fill="#1E84B5" fill-opacity="0.1"/>
<path d="M485.664 25.3159C464.885 27.6536 463.067 29.6016 460.729 50.3809C458.391 29.6016 456.443 27.6536 435.664 25.3159C456.443 22.9783 458.391 21.1601 460.729 0.380859C463.067 21.1601 464.885 22.9783 485.664 25.3159Z" fill="#1E84B5" fill-opacity="0.1"/>
</g>
<defs>
<clipPath id="clip0_635_117">
<rect width="486" height="460" fill="white"/>
</clipPath>
</defs>
</svg>

<svg xmlns="http://www.w3.org/2000/svg" width="486" height="460" fill="none" viewBox="0 0 486 460"><g clip-path="url(#a)"><path fill="#1e84b5" fill-opacity=".1" d="M80 419.896c-33.247 3.74-36.156 6.857-39.896 40.104-3.74-33.247-6.857-36.364-40.104-40.104 33.247-3.74 36.364-6.649 40.104-39.896 3.74 33.247 6.65 36.156 39.896 39.896"/><path fill="#1e84b5" d="M30.812 445.518c-11.636 1.309-12.654 2.4-13.963 14.037-1.31-11.637-2.4-12.728-14.036-14.037 11.636-1.309 12.727-2.327 14.036-13.963 1.309 11.636 2.327 12.654 13.963 13.963"/><path fill="#fff" d="M335 59a3 3 0 1 0 0-6 3 3 0 0 0 0 6"/><path fill="#1e84b5" fill-opacity=".1" d="M435.995 230a6.34 6.34 0 0 1-6.331-6.331v-37.338a6.34 6.34 0 0 1 6.331-6.331c3.409 0 6.25 2.841 6.25 6.331v37.338c0 3.49-2.841 6.331-6.25 6.331"/><path fill="#1e84b5" fill-opacity=".1" d="M411 204.999c0-3.49 2.841-6.331 6.25-6.331h37.419c3.49 0 6.25 2.841 6.25 6.331s-2.76 6.331-6.25 6.331H417.25c-3.409 0-6.25-2.84-6.25-6.331m74.664-179.683c-20.779 2.338-22.597 4.286-24.935 25.065-2.338-20.78-4.286-22.727-25.065-25.065 20.779-2.338 22.727-4.156 25.065-24.935 2.338 20.78 4.156 22.597 24.935 24.935"/></g><defs><clipPath id="a"><path fill="#fff" d="M0 0h486v460H0z"/></clipPath></defs></svg>
